src/assets/outline/Tenx.svg

<svg width="24" height="24" viewBox="0 0 24 24"  xmlns="http://www.w3.org/2000/svg">
<path d="M15.2499 15.9995C15.0599 15.9995 14.8699 15.9295 14.7199 15.7795L11.9999 13.0594L9.27994 15.7795C8.98994 16.0695 8.50994 16.0695 8.21994 15.7795L4.96994 12.5295C4.67994 12.2395 4.67994 11.7595 4.96994 11.4695L8.21994 8.21945C8.50994 7.92945 8.98994 7.92945 9.27994 8.21945L11.9999 10.9395L14.7199 8.21945C15.0099 7.92945 15.4899 7.92945 15.7799 8.21945L19.0299 11.4695C19.3199 11.7595 19.3199 12.2395 19.0299 12.5295L15.7799 15.7795C15.6299 15.9295 15.4399 15.9995 15.2499 15.9995ZM13.0599 11.9995L15.2499 14.1895L17.4399 11.9995L15.2499 9.80945L13.0599 11.9995ZM6.55994 11.9995L8.74994 14.1895L10.9399 11.9995L8.74994 9.80945L6.55994 11.9995Z" />
<path d="M12 22.75C6.07 22.75 1.25 17.93 1.25 12C1.25 6.07 6.07 1.25 12 1.25C17.93 1.25 22.75 6.07 22.75 12C22.75 17.93 17.93 22.75 12 22.75ZM12 2.75C6.9 2.75 2.75 6.9 2.75 12C2.75 17.1 6.9 21.25 12 21.25C17.1 21.25 21.25 17.1 21.25 12C21.25 6.9 17.1 2.75 12 2.75Z" />
</svg>

<?xml version="1.0" encoding="UTF-8"?>
<svg width="24" height="24" viewBox="0 0 24 24" xmlns="http://www.w3.org/2000/svg">
 <path d="m15.25 16c-0.19 0-0.38-0.07-0.53-0.22l-2.72-2.7201-2.72 2.7201c-0.29 0.29-0.77 0.29-1.06 0l-3.25-3.25c-0.29-0.29-0.29-0.77 0-1.06l3.25-3.25c0.29-0.29 0.77-0.29 1.06 0l2.72 2.72 2.72-2.72c0.29-0.29 0.77-0.29 1.06 0l3.25 3.25c0.29 0.29 0.29 0.77 0 1.06l-3.25 3.25c-0.15 0.15-0.34 0.22-0.53 0.22zm-2.19-4 2.19 2.19 2.19-2.19-2.19-2.19-2.19 2.19zm-6.5 0 2.19 2.19 2.19-2.19-2.19-2.19-2.19 2.19z"/>
 <path d="m12 22.75c-5.93 0-10.75-4.82-10.75-10.75s4.82-10.75 10.75-10.75 10.75 4.82 10.75 10.75-4.82 10.75-10.75 10.75zm0-20c-5.1 0-9.25 4.15-9.25 9.25s4.15 9.25 9.25 9.25 9.25-4.15 9.25-9.25-4.15-9.25-9.25-9.25z"/>
</svg>
